TileServer und Tiles/svg/9/2_24.svg

<?xml version='1.0' encoding='UTF-8' standalone='no'?>
<svg xmlns="http://www.w3.org/2000/svg" width="497pt" viewBox="0 0 497 279" xmlns:xlink="http://www.w3.org/1999/xlink" height="279pt">
 <defs style="stroke:none;" overflow="visible">
  <path id="glyph0-4" d="M 2.640625 -0.625 C 2.773438 -0.625 2.910156 -0.632812 3.046875 -0.65625 C 3.191406 -0.675781 3.304688 -0.703125 3.390625 -0.734375 L 3.390625 -0.0625 C 3.296875 -0.0078125 3.160156 0.0234375 2.984375 0.046875 C 2.816406 0.078125 2.648438 0.09375 2.484375 0.09375 C 2.203125 0.09375 1.941406 0.046875 1.703125 -0.046875 C 1.472656 -0.140625 1.285156 -0.304688 1.140625 -0.546875 C 0.992188 -0.785156 0.921875 -1.125 0.921875 -1.5625 L 0.921875 -4.6875 L 0.15625 -4.6875 L 0.15625 -5.09375 L 0.9375 -5.453125 L 1.28125 -6.59375 L 1.796875 -6.59375 L 1.796875 -5.359375 L 3.34375 -5.359375 L 3.34375 -4.6875 L 1.796875 -4.6875 L 1.796875 -1.578125 C 1.796875 -1.253906 1.875 -1.015625 2.03125 -0.859375 C 2.1875 -0.703125 2.390625 -0.625 2.640625 -0.625 Z M 2.640625 -0.625 "/>
  <path id="glyph0-3" d="M 3.4375 -5.453125 C 4.070312 -5.453125 4.550781 -5.296875 4.875 -4.984375 C 5.207031 -4.679688 5.375 -4.179688 5.375 -3.484375 L 5.375 0 L 4.5 0 L 4.5 -3.4375 C 4.5 -4.289062 4.097656 -4.71875 3.296875 -4.71875 C 2.703125 -4.71875 2.289062 -4.550781 2.0625 -4.21875 C 1.84375 -3.882812 1.734375 -3.40625 1.734375 -2.78125 L 1.734375 0 L 0.84375 0 L 0.84375 -5.359375 L 1.5625 -5.359375 L 1.6875 -4.625 L 1.734375 -4.625 C 1.910156 -4.90625 2.148438 -5.113281 2.453125 -5.25 C 2.765625 -5.382812 3.09375 -5.453125 3.4375 -5.453125 Z M 3.4375 -5.453125 "/>
  <path id="glyph0-2" d="M 2.875 -5.453125 C 3.53125 -5.453125 4.015625 -5.304688 4.328125 -5.015625 C 4.640625 -4.734375 4.796875 -4.28125 4.796875 -3.65625 L 4.796875 0 L 4.15625 0 L 3.984375 -0.765625 L 3.953125 -0.765625 C 3.710938 -0.460938 3.460938 -0.242188 3.203125 -0.109375 C 2.953125 0.0234375 2.601562 0.09375 2.15625 0.09375 C 1.664062 0.09375 1.257812 -0.03125 0.9375 -0.28125 C 0.613281 -0.539062 0.453125 -0.941406 0.453125 -1.484375 C 0.453125 -2.023438 0.660156 -2.4375 1.078125 -2.71875 C 1.503906 -3.007812 2.15625 -3.171875 3.03125 -3.203125 L 3.9375 -3.234375 L 3.9375 -3.546875 C 3.9375 -3.992188 3.835938 -4.300781 3.640625 -4.46875 C 3.453125 -4.644531 3.179688 -4.734375 2.828125 -4.734375 C 2.546875 -4.734375 2.28125 -4.691406 2.03125 -4.609375 C 1.78125 -4.523438 1.539062 -4.429688 1.3125 -4.328125 L 1.046875 -4.984375 C 1.285156 -5.117188 1.5625 -5.226562 1.875 -5.3125 C 2.195312 -5.40625 2.53125 -5.453125 2.875 -5.453125 Z M 3.9375 -2.625 L 3.140625 -2.59375 C 2.472656 -2.5625 2.007812 -2.453125 1.75 -2.265625 C 1.5 -2.078125 1.375 -1.816406 1.375 -1.484375 C 1.375 -1.179688 1.460938 -0.957031 1.640625 -0.8125 C 1.828125 -0.675781 2.0625 -0.609375 2.34375 -0.609375 C 2.800781 -0.609375 3.179688 -0.734375 3.484375 -0.984375 C 3.785156 -1.234375 3.9375 -1.617188 3.9375 -2.140625 Z M 3.9375 -2.625 "/>
  <path id="glyph0-1" d="M 6 -7.140625 L 3.453125 0 L 2.546875 0 L 0 -7.140625 L 0.9375 -7.140625 L 2.546875 -2.5625 C 2.648438 -2.269531 2.738281 -1.992188 2.8125 -1.734375 C 2.894531 -1.472656 2.957031 -1.226562 3 -1 C 3.039062 -1.226562 3.097656 -1.472656 3.171875 -1.734375 C 3.253906 -1.992188 3.347656 -2.273438 3.453125 -2.578125 L 5.046875 -7.140625 Z M 6 -7.140625 "/>
  <path id="glyph0-0" d="M 0.9375 0 L 0.9375 -7.140625 L 5.046875 -7.140625 L 5.046875 0 Z M 1.453125 -0.515625 L 4.546875 -0.515625 L 4.546875 -6.625 L 1.453125 -6.625 Z M 1.453125 -0.515625 "/>
 </defs>
 <image width="497" xlink:href="svg/9/2_24.jpg" height="279"/>
 <g>
  <path d="M 258.570312 247.613281 L 256.023438 254.753906 L 255.117188 254.753906 L 252.570312 247.613281 L 253.507812 247.613281 L 255.117188 252.191406 C 255.21875 252.484375 255.308594 252.761719 255.382812 253.019531 C 255.464844 253.28125 255.527344 253.527344 255.570312 253.753906 C 255.609375 253.527344 255.667969 253.28125 255.742188 253.019531 C 255.824219 252.761719 255.917969 252.480469 256.023438 252.175781 L 257.617188 247.613281 Z M 258.570312 247.613281 " transform=" rotate(  340 268.876 251.754) " style="fill:none;stroke-width:3;stroke-linecap:butt;stroke-linejoin:round;stroke:rgb(100%,100%,100%);stroke-opacity:0.6;stroke-miterlimit:10;"/>
  <path d="M 261.246094 249.300781 C 261.902344 249.300781 262.386719 249.449219 262.699219 249.738281 C 263.011719 250.019531 263.167969 250.472656 263.167969 251.097656 L 263.167969 254.753906 L 262.527344 254.753906 L 262.355469 253.988281 L 262.324219 253.988281 C 262.082031 254.292969 261.832031 254.511719 261.574219 254.644531 C 261.324219 254.777344 260.972656 254.847656 260.527344 254.847656 C 260.035156 254.847656 259.628906 254.722656 259.308594 254.472656 C 258.984375 254.214844 258.824219 253.8125 258.824219 253.269531 C 258.824219 252.730469 259.03125 252.316406 259.449219 252.035156 C 259.875 251.746094 260.527344 251.582031 261.402344 251.550781 L 262.308594 251.519531 L 262.308594 251.207031 C 262.308594 250.761719 262.207031 250.453125 262.011719 250.285156 C 261.824219 250.109375 261.550781 250.019531 261.199219 250.019531 C 260.917969 250.019531 260.652344 250.0625 260.402344 250.144531 C 260.152344 250.230469 259.910156 250.324219 259.683594 250.425781 L 259.417969 249.769531 C 259.65625 249.636719 259.933594 249.527344 260.246094 249.441406 C 260.566406 249.347656 260.902344 249.300781 261.246094 249.300781 Z M 262.308594 252.128906 L 261.511719 252.160156 C 260.84375 252.191406 260.378906 252.300781 260.121094 252.488281 C 259.871094 252.675781 259.746094 252.9375 259.746094 253.269531 C 259.746094 253.574219 259.832031 253.796875 260.011719 253.941406 C 260.199219 254.078125 260.433594 254.144531 260.714844 254.144531 C 261.171875 254.144531 261.550781 254.019531 261.855469 253.769531 C 262.15625 253.519531 262.308594 253.136719 262.308594 252.613281 Z M 262.308594 252.128906 " transform=" rotate(  340 268.876 251.754) " style="fill:none;stroke-width:3;stroke-linecap:butt;stroke-linejoin:round;stroke:rgb(100%,100%,100%);stroke-opacity:0.6;stroke-miterlimit:10;"/>
  <path d="M 267.417969 249.300781 C 268.050781 249.300781 268.53125 249.457031 268.855469 249.769531 C 269.1875 250.074219 269.355469 250.574219 269.355469 251.269531 L 269.355469 254.753906 L 268.480469 254.753906 L 268.480469 251.316406 C 268.480469 250.464844 268.078125 250.035156 267.277344 250.035156 C 266.683594 250.035156 266.269531 250.203125 266.042969 250.535156 C 265.824219 250.871094 265.714844 251.347656 265.714844 251.972656 L 265.714844 254.753906 L 264.824219 254.753906 L 264.824219 249.394531 L 265.542969 249.394531 L 265.667969 250.128906 L 265.714844 250.128906 C 265.890625 249.847656 266.128906 249.640625 266.433594 249.503906 C 266.746094 249.371094 267.074219 249.300781 267.417969 249.300781 Z M 267.417969 249.300781 " transform=" rotate(  340 268.876 251.754) " style="fill:none;stroke-width:3;stroke-linecap:butt;stroke-linejoin:round;stroke:rgb(100%,100%,100%);stroke-opacity:0.6;stroke-miterlimit:10;"/>
  <path d="M 272.800781 254.128906 C 272.933594 254.128906 273.070312 254.121094 273.207031 254.097656 C 273.351562 254.078125 273.464844 254.050781 273.550781 254.019531 L 273.550781 254.691406 C 273.457031 254.746094 273.320312 254.777344 273.144531 254.800781 C 272.976562 254.832031 272.808594 254.847656 272.644531 254.847656 C 272.363281 254.847656 272.101562 254.800781 271.863281 254.707031 C 271.632812 254.613281 271.445312 254.449219 271.300781 254.207031 C 271.152344 253.96875 271.082031 253.628906 271.082031 253.191406 L 271.082031 250.066406 L 270.316406 250.066406 L 270.316406 249.660156 L 271.097656 249.300781 L 271.441406 248.160156 L 271.957031 248.160156 L 271.957031 249.394531 L 273.503906 249.394531 L 273.503906 250.066406 L 271.957031 250.066406 L 271.957031 253.175781 C 271.957031 253.5 272.035156 253.738281 272.191406 253.894531 C 272.347656 254.050781 272.550781 254.128906 272.800781 254.128906 Z M 272.800781 254.128906 " transform=" rotate(  340 268.876 251.754) " style="fill:none;stroke-width:3;stroke-linecap:butt;stroke-linejoin:round;stroke:rgb(100%,100%,100%);stroke-opacity:0.6;stroke-miterlimit:10;"/>
  <path d="M 276.644531 249.300781 C 277.300781 249.300781 277.785156 249.449219 278.097656 249.738281 C 278.410156 250.019531 278.566406 250.472656 278.566406 251.097656 L 278.566406 254.753906 L 277.925781 254.753906 L 277.753906 253.988281 L 277.722656 253.988281 C 277.480469 254.292969 277.230469 254.511719 276.972656 254.644531 C 276.722656 254.777344 276.371094 254.847656 275.925781 254.847656 C 275.433594 254.847656 275.027344 254.722656 274.707031 254.472656 C 274.382812 254.214844 274.222656 253.8125 274.222656 253.269531 C 274.222656 252.730469 274.429688 252.316406 274.847656 252.035156 C 275.273438 251.746094 275.925781 251.582031 276.800781 251.550781 L 277.707031 251.519531 L 277.707031 251.207031 C 277.707031 250.761719 277.605469 250.453125 277.410156 250.285156 C 277.222656 250.109375 276.949219 250.019531 276.597656 250.019531 C 276.316406 250.019531 276.050781 250.0625 275.800781 250.144531 C 275.550781 250.230469 275.308594 250.324219 275.082031 250.425781 L 274.816406 249.769531 C 275.054688 249.636719 275.332031 249.527344 275.644531 249.441406 C 275.964844 249.347656 276.300781 249.300781 276.644531 249.300781 Z M 277.707031 252.128906 L 276.910156 252.160156 C 276.242188 252.191406 275.777344 252.300781 275.519531 252.488281 C 275.269531 252.675781 275.144531 252.9375 275.144531 253.269531 C 275.144531 253.574219 275.230469 253.796875 275.410156 253.941406 C 275.597656 254.078125 275.832031 254.144531 276.113281 254.144531 C 276.570312 254.144531 276.949219 254.019531 277.253906 253.769531 C 277.554688 253.519531 277.707031 253.136719 277.707031 252.613281 Z M 277.707031 252.128906 " transform=" rotate(  340 268.876 251.754) " style="fill:none;stroke-width:3;stroke-linecap:butt;stroke-linejoin:round;stroke:rgb(100%,100%,100%);stroke-opacity:0.6;stroke-miterlimit:10;"/>
  <path d="M 282.253906 249.300781 C 282.910156 249.300781 283.394531 249.449219 283.707031 249.738281 C 284.019531 250.019531 284.175781 250.472656 284.175781 251.097656 L 284.175781 254.753906 L 283.535156 254.753906 L 283.363281 253.988281 L 283.332031 253.988281 C 283.089844 254.292969 282.839844 254.511719 282.582031 254.644531 C 282.332031 254.777344 281.980469 254.847656 281.535156 254.847656 C 281.042969 254.847656 280.636719 254.722656 280.316406 254.472656 C 279.992188 254.214844 279.832031 253.8125 279.832031 253.269531 C 279.832031 252.730469 280.039062 252.316406 280.457031 252.035156 C 280.882812 251.746094 281.535156 251.582031 282.410156 251.550781 L 283.316406 251.519531 L 283.316406 251.207031 C 283.316406 250.761719 283.214844 250.453125 283.019531 250.285156 C 282.832031 250.109375 282.558594 250.019531 282.207031 250.019531 C 281.925781 250.019531 281.660156 250.0625 281.410156 250.144531 C 281.160156 250.230469 280.917969 250.324219 280.691406 250.425781 L 280.425781 249.769531 C 280.664062 249.636719 280.941406 249.527344 281.253906 249.441406 C 281.574219 249.347656 281.910156 249.300781 282.253906 249.300781 Z M 283.316406 252.128906 L 282.519531 252.160156 C 281.851562 252.191406 281.386719 252.300781 281.128906 252.488281 C 280.878906 252.675781 280.753906 252.9375 280.753906 253.269531 C 280.753906 253.574219 280.839844 253.796875 281.019531 253.941406 C 281.207031 254.078125 281.441406 254.144531 281.722656 254.144531 C 282.179688 254.144531 282.558594 254.019531 282.863281 253.769531 C 283.164062 253.519531 283.316406 253.136719 283.316406 252.613281 Z M 283.316406 252.128906 " transform=" rotate(  340 268.876 251.754) " style="fill:none;stroke-width:3;stroke-linecap:butt;stroke-linejoin:round;stroke:rgb(100%,100%,100%);stroke-opacity:0.6;stroke-miterlimit:10;"/>
  <g transform=" rotate(  340 268.876 251.754) " style="fill:rgb(13.333333%,13.333333%,13.333333%);fill-opacity:1;">
   <use xlink:href="#glyph0-1" y="254.753756" x="252.570663"/>
   <use xlink:href="#glyph0-2" y="254.753756" x="258.370663"/>
   <use xlink:href="#glyph0-3" y="254.753756" x="263.980663"/>
   <use xlink:href="#glyph0-4" y="254.753756" x="270.160663"/>
   <use xlink:href="#glyph0-2" y="254.753756" x="273.770663"/>
   <use xlink:href="#glyph0-2" y="254.753756" x="279.380663"/>
  </g>
 </g>
</svg>

<svg xmlns="http://www.w3.org/2000/svg" xmlns:xlink="http://www.w3.org/1999/xlink" viewBox="0 0 497 279"> <defs overflow="visible" style="stroke:none">  <path id="d" d="M2.6-.6H3l.4-.2v.7L3 0H1.7l-.6-.5-.1-1v-3.3H.2V-5l.7-.5.4-1h.5v1h1.5v.8H1.8v3.1c0 .3 0 .6.2.7l.6.3Zm0 0"/>  <path id="c" d="M3.4-5.5c.7 0 1.2.2 1.6.5.2.3.4.8.4 1.5V0h-.9v-3.4c0-.9-.4-1.3-1.2-1.3-.6 0-1 .1-1.2.5-.3.2-.4.8-.4 1.4V0H.8v-5.4h.8v.8h.2c.2-.4.3-.5.7-.7l1-.2Zm0 0"/>  <path id="b" d="M2.9-5.5c.6 0 1.1.2 1.4.5.3.3.5.7.5 1.3V0h-.6L4-.8c-.3.3-.5.6-.8.8h-1c-.5 0-1 0-1.3-.3C.6-.5.5-.9.5-1.5c0-.5.2-1 .5-1.2.5-.3 1-.5 2-.5h.8v-.3c.2-.5.2-.8-.2-1l-.8-.2H2l-.7.5L1-5l1-.3.9-.2Zm1 2.9h-.8c-.6 0-1 .1-1.4.3-.1.3-.3.5-.3.8 0 .3 0 .5.2.7l.7.2c.5 0 .9-.1 1.2-.4.3-.2.4-.6.4-1Zm.1 0"/>  <path id="a" d="M6-7.1 3.5 0h-1L0-7.1h1l1.4 4.5A16.5 16.5 0 0 1 3-1l.2-.7.3-.9L5-7Zm0 0"/>  <path d="M1 0v-7.1h4V0Zm.4-.5h3.1v-6.1h-3Zm.1 0"/> </defs> <image xlink:href="svg/9/2_24.jpg" width="497" height="279"/> <path d="m258.6 247.6-2.6 7.2h-.9l-2.5-7.2h1l1.4 4.6a16.5 16.5 0 0 1 .6 1.6l.1-.8.3-.8 1.6-4.6Zm2.6 1.7c.8 0 1.2.1 1.5.4.3.3.5.8.5 1.4v3.7h-.7l-.1-.8-.9.6c-.2.2-.5.2-.9.2-.6 0-1.1 0-1.4-.3-.2-.3-.4-.7-.4-1.2 0-.6.2-1 .6-1.3.6-.3 1.1-.4 2-.4h1v-.5c-.1-.3-.3-.6-.4-.9l-.8-.2-.8.1-.7.3-.3-.6.8-.4 1-.1Zm1.1 2.8h-.8c-.7.1-1.1.3-1.4.5-.1.1-.4.3-.4.7 0 .3.1.5.3.6.2.2.4.2.7.2.5 0 .9 0 1.3-.3.2-.3.3-.8.3-1.2Zm5.1-2.8c.7 0 1.1.2 1.6.5.2.2.4.8.4 1.5v3.5h-1v-3.5c.1-.8-.2-1.3-1-1.3-.7 0-1.1.2-1.4.5-.2.5-.3.8-.3 1.5v2.8h-.9v-5.4h.7l.2.6c.3-.2.4-.4.7-.5l1-.2Zm5.4 4.8h.8v.5l-.6.2h-1l-.7-.7-.2-.9V250h-.8v-.3l.8-.4.3-1.1h.6v1.2h1.5v.6H272v3c0 .6 0 .8.2 1h.6Zm3.8-4.8c.7 0 1.2.1 1.5.4.3.3.5.8.5 1.4v3.7h-.7l-.1-.8-.8.6c-.3.2-.6.2-1 .2-.7 0-1 0-1.4-.3-.2-.3-.4-.7-.4-1.2 0-.6.2-1 .6-1.3.5-.3 1.2-.4 2-.4h1v-.5c-.1-.3-.3-.6-.5-.9l-.7-.2-.8.1-.7.3-.3-.6.8-.4 1-.1Zm1.1 2.8h-.7c-.8.1-1.2.3-1.5.5-.2.1-.4.3-.4.7 0 .3.1.5.3.6.2.2.4.2.7.2.5 0 .9 0 1.2-.3.3-.3.4-.8.4-1.2Zm4.6-2.8c.6 0 1 .1 1.4.4.3.3.5.8.5 1.4v3.7h-.7l-.1-.8-.9.6c-.2.2-.5.2-.9.2-.6 0-1.1 0-1.4-.3-.2-.3-.4-.7-.4-1.2 0-.6.2-1 .7-1.3.4-.3 1-.4 2-.4h.7v-.5c.1-.3.1-.6-.2-.9l-.8-.2-.8.1-.7.3-.3-.6.9-.4 1-.1Zm1 2.8h-.8c-.5.1-1.1.3-1.4.5-.1.1-.3.3-.3.7 0 .3 0 .5.2.6.2.2.4.2.7.2.5 0 .9 0 1.3-.3.2-.3.3-.8.3-1.2Zm0 0" style="fill:none;stroke-width:3;stroke-linecap:butt;stroke-linejoin:round;stroke:#fff;stroke-opacity:.6;stroke-miterlimit:10" transform=" rotate(  340 268.876 251.754) "/> <g style="fill:#222;fill-opacity:1" transform=" rotate(  340 268.876 251.754) ">  <use xlink:href="#a" x="252.6" y="254.8"/>  <use xlink:href="#b" x="258.4" y="254.8"/>  <use xlink:href="#c" x="264" y="254.8"/>  <use xlink:href="#d" x="270.2" y="254.8"/>  <use xlink:href="#b" x="273.8" y="254.8"/>  <use xlink:href="#b" x="279.4" y="254.8"/> </g></svg>
